X: 9595
T: Davy Roche's
R: reel
M: 4/4
K: Gmajor
|:AG|EAAG ABcd|eA A/B/A agef|gedB GA B/c/d|eB B/c/B gBdB|
A^GAB c3 d|eA A/B/A agef|gedB GA B/c/d|eAAG A2:|
|:B/c/d|eaae agef|g/a/g f/g/a gedg|eaae agef|g/a/g fa g/a/g f/g/f|
eaag agef|g/a/g fa gedB|GA B/c/d eB B/c/B|gBdB A2:|

